!!!CDT:
!!!PTL: Madrigali. Il primo libro a due, tre e quattro
!!!PPP: Venice
!!!PPR: Giacomo Vincenzi
!!!PDT: 1640
!!!PUB-format:
!!!RISM: V 1484
!!!rime: 373
!!!AGN: Madrigal
!!!SCT: Trm0373a
!!!SCA: Trm0373a
!!!original-voices: 2+bc
!!!extant-voices: 2+bc
!!!complete: Y
!!!final: G
!!!COM: Vignali, Francesco
!!!OTL: Bella e vaga brunetta
**kern	**fb	**kern	**text	**kern	**text
*part3	*part3	*part2	*part2	*part1	*part1
*staff3	*staff3	*staff2	*staff2	*staff1	*staff1
*I"Basso continuo	*	*I"[Canto 2]	*	*I"[Canto 1]	*
*I'Bc	*	*I'C 2	*	*I'C 1	*
*oclefF4	*	*oclefC1	*	*oclefC1	*
*clefF4	*	*clefG2	*	*clefG2	*
*k[]	*	*k[]	*	*k[]	*
*C:	*	*C:	*	*C:	*
*omet(C)	*	*omet(C)	*	*omet(C)	*
*M4/4	*	*M4/4	*	*M4/4	*
=1	=1	=1	=1	=1	=1
!!LO:TX:a:t=A 2. Canti
2D	.	1r	.	4r	.
.	.	.	.	(>16ddL	Bel-
.	.	.	.	16cc)	.
.	.	.	.	(>16bJ	-la e
.	.	.	.	16a)	ga-
4G	.	.	.	8b	-ga
.	.	.	.	4g	bru-
4E	.	.	.	.	.
.	.	.	.	8b	-net-
=2	=2	=2	=2	=2	=2
4C	.	1r	.	8aL	.
.	.	.	.	16b	.
.	.	.	.	16ccJ	.
4D	.	.	.	8.b	.
.	.	.	.	(<16a	-ta,
2GG	.	.	.	4g)	.
.	.	.	.	8g	.
.	.	.	.	8a	I
=3	=3	=3	=3	=3	=3
8GL	.	1r	.	4b	vo-
8FJ	.	.	.	.	.
8EL	.	.	.	(>2cc	-str'oc-
8DJ	.	.	.	.	.
8CL	.	.	.	.	.
8BBJ	.	.	.	.	.
8AAL	.	.	.	8cc)	-chi
8GGJ	.	.	.	8cc	lu-
=4	=4	=4	=4	=4	=4
8FFL	.	1r	.	4cc	-cen-
8DDJ	.	.	.	.	.
4GG	.	.	.	(>4b	-ti
4C	.	.	.	4cc)	.
8AAL	.	.	.	4ee	Son
8AJ	.	.	.	.	.
=5	=5	=5	=5	=5	=5
4F#X	.	1r	.	16ddL	stra-
.	.	.	.	16ee	.
.	.	.	.	16dd	.
.	.	.	.	16ccJ	.
4G	.	.	.	16bL	.
.	.	.	.	16dd	.
.	.	.	.	16cc	.
.	.	.	.	16bJ	.
4E	.	.	.	16ccL	.
.	.	.	.	16dd	.
.	.	.	.	16cc	.
.	.	.	.	16bJ	.
4FnXi	.	.	.	16aL	.
.	.	.	.	16cc	.
.	.	.	.	16b	.
.	.	.	.	16aJ	.
=6	=6	=6	=6	=6	=6
4G	.	1r	.	8.b	.
.	.	.	.	16g	-li e
4E	.	.	.	8.b	fia-
.	.	.	.	16cc#X	-m'ar-
4D	.	.	.	8ddL	-den-
.	.	.	.	16b	.
.	.	.	.	16ccnXiJ	.
4BB	.	.	.	16ddL	.
.	.	.	.	16ee	.
.	.	.	.	16ff	.
.	.	.	.	16gJ	.
=7	=7	=7	=7	=7	=7
4C	.	4r	.	2a	.
4D	.	(>16ddL	Bel-	.	.
.	.	16cc)J	.	.	.
.	.	(>16bJL	-la e	.	.
.	.	16a)	.	.	.
4G	.	8b	va-	2g	-ti,
.	.	4g	-ga	.	.
4E	.	.	.	.	.
.	.	8b	bru-	.	.
=8	=8	=8	=8	=8	=8
4C	.	8aL	-net-	1r	.
.	.	16b	.	.	.
.	.	16ccJ	.	.	.
4D	.	8.b	.	.	.
.	.	(<16a	-ta,	.	.
2GG	.	4g)	.	.	.
.	.	8g	I	.	.
.	.	8a	vo-	.	.
=9	=9	=9	=9	=9	=9
8GL	.	4b	-str'oc-	4r	.
8FJ	.	.	.	.	.
8EL	.	(>2cc	-chi	(<16gL	Bel-
.	.	.	.	16f)	.
8DJ	.	.	.	(<16eJ	-la e
.	.	.	.	16d)	.
8CL	.	.	.	8e	va-
8BBJ	.	.	.	4c	-ga
8AAL	.	8cc)	.	.	.
8GGJ	.	8cc	lu-	8e	bru-
=10	=10	=10	=10	=10	=10
8FFL	.	4cc	-cen-	8dL	-net-
8DDJ	.	.	.	16e	.
.	.	.	.	16fJ	.
4GG	.	(>4b	-ti	8.e	.
.	.	.	.	(<16d	-ta,
4C	.	4cc)	.	2c)	.
8AAL	.	4ee	son	.	.
8AJ	.	.	.	.	.
=11	=11	=11	=11	=11	=11
4F#X	.	16ddL	stra-	1r	.
.	.	16ee	.	.	.
.	.	16dd	.	.	.
.	.	16ccJ	.	.	.
4G	.	16bL	.	.	.
.	.	16dd	.	.	.
.	.	16cc	.	.	.
.	.	16bJ	.	.	.
4E	.	16ccL	.	.	.
.	.	16dd	.	.	.
.	.	16cc	.	.	.
.	.	16bJ	.	.	.
4FnXi	.	16aL	.	.	.
.	.	16cc	.	.	.
.	.	16b	.	.	.
.	.	16aJ	.	.	.
=12	=12	=12	=12	=12	=12
4G	.	8.b	.	1r	.
.	.	16g	-li e	.	.
4E	.	8.b	fiam-	.	.
.	.	16cc#X	-me ar-	.	.
4BB	.	8ddL	-den-	.	.
.	.	16b	.	.	.
.	.	16ccnXiJ	.	.	.
4GG	.	16ddL	.	.	.
.	.	16ee	.	.	.
.	.	16ff	.	.	.
.	.	16gJ	.	.	.
=13	=13	=13	=13	=13	=13
4C	.	2a	.	4r	.
4D	.	.	.	(>16ddL	<Bel-
.	.	.	.	16cc)	.
.	.	.	.	(>16bJ	-la e
.	.	.	.	16a)	.
4G	.	2g	-ti,	8b	va-
.	.	.	.	4g	-ga
4E	.	.	.	.	.
.	.	.	.	8b	bru-
=14	=14	=14	=14	=14	=14
4C	.	2r	.	8aL	-net-
.	.	.	.	16b	.
.	.	.	.	16ccJ	.
4D	.	.	.	8.b	.
.	.	.	.	(<16a	-ta,>
4G	.	4r	.	4g)	.
[4C	.	(<16gL	Bel-	(>16eeL	<Bel-
.	.	16f)J	.	16dd)	.
.	.	(<16eJL	-la e	(>16ccJ	-la e
.	.	16d)	.	16b)	.
=15	=15	=15	=15	=15	=15
4C]	.	8e	va-	8cc	va-
.	.	4c	-ga	4a	-ga
4FF	.	.	.	.	.
.	.	8e	bru-	8cc	bru-
2GG	.	8dL	-net-	8bL	-net-
.	.	16e	.	16cc	.
.	.	16fJ	.	16ddJ	.
.	.	8.e	.	8.cc	.
.	.	(<16d	-ta,	(>16b	-ta,>
=16	=16	=16	=16	=16	=16
2C	.	2e)	.	4cc)	.
.	.	.	.	8c	I
.	.	.	.	8d	vo-
8CL	.	2r	.	4e	-str'oc-
8BBJ	.	.	.	.	.
4AA	.	.	.	8f	-chi
.	.	.	.	8f	lu-
=17	=17	=17	=17	=17	=17
4BB-X	.	2r	.	4f	-cen-
4C	.	.	.	(<4e	-ti
2FF	.	4r	.	2f)	.
.	.	8a	I	.	.
.	.	8b	vo-	.	.
=18	=18	=18	=18	=18	=18
8AAL	.	4cc#X	-str'oc-	1r	.
8GGJ	.	.	.	.	.
4FF#X	.	8dd	-chi	.	.
.	.	8dd	lu-	.	.
4GG	.	4dd	-cen-	.	.
4AA	.	4cc#X	.	.	.
=19	=19	=19	=19	=19	=19
2D	.	2dd	-ti	4r	.
.	.	.	.	4a	son
4BB	.	4r	.	16gL	stra-
.	.	.	.	16a	.
.	.	.	.	16g	.
.	.	.	.	16fJ	.
4C	.	4ee	son	16eL	.
.	.	.	.	16g	.
.	.	.	.	16f	.
.	.	.	.	16eJ	.
=20	=20	=20	=20	=20	=20
4D	.	16ddL	stra-	16fL	.
.	.	16ee	.	16g	.
.	.	16dd	.	16f	.
.	.	16ccJ	.	16eJ	.
4GG	.	16bL	.	16dL	.
.	.	16dd	.	16f	.
.	.	16cc	.	16e	.
.	.	16bJ	.	16dJ	.
4C	.	16ccL	.	8.e	.
.	.	16dd	.	.	.
.	.	16cc	.	.	.
.	.	16bJ	.	16c	-li e
4AA	.	16aL	.	8.e	fia-
.	.	16cc	.	.	.
.	.	16b	.	.	.
.	.	16aJ	.	16f#X	-me ar-
=21	=21	=21	=21	=21	=21
2GG	.	8.b	.	8g	-den-
.	.	.	.	8g	-ti,
.	.	16g	-li e	.	.
.	.	8.b	fiam-	8r	.
.	.	.	.	8a	e
.	.	16cc#X	-me ar-	.	.
4G	.	(>2dd	-den-	8.b	stra-
.	.	.	.	16g	-li e
4E	.	.	.	8.b	fia-
.	.	.	.	16cc#X	-me ar-
=22	=22	=22	=22	=22	=22
4D	.	8dd)L	.	(>2dd	-den-
.	.	16b	.	.	.
.	.	16ccnXiJ	.	.	.
4BB	.	16ddL	.	.	.
.	.	16ee	.	.	.
.	.	16ff	.	.	.
.	.	16gJ	.	.	.
4D	.	8aL	.	8dd)L	.
.	.	8gJ	.	16b	.
.	.	.	.	16ccnXiJ	.
4GG	.	[4g	.	16ddL	.
.	.	.	.	16ee	.
.	.	.	.	16ff	.
.	.	.	.	16gJ	.
=23	=23	=23	=23	=23	=23
2C	.	4g]	.	16aL	.
.	.	.	.	8.b-XJ	.
.	.	8f#XL	.	16ccL	.
.	.	.	.	8.b-iJ	.
.	.	8eJ	.	.	.
2D	.	(<2f#X	-ti	(<2a	-ti
=24	=24	=24	=24	=24	=24
1GGl	.	1gl)	.	1gl)	.
=25||	=25||	=25||	=25||	=25||	=25||
4G	.	1r	.	4b	Con
4D	.	.	.	4a	ch'a-
4E	.	.	.	4g	-mor
4AA	.	.	.	8f#X	il
.	.	.	.	8e	mio
=26	=26	=26	=26	=26	=26
4D	.	1r	.	8f#X	cor
.	.	.	.	8a	m'ar-
4C	.	.	.	8b	-de e
.	.	.	.	8cc	sa-
4BB	.	.	.	8ddL	-et-
.	.	.	.	16ee	.
.	.	.	.	16ddJ	.
4D	.	.	.	16ccL	.
.	.	.	.	16a	.
.	.	.	.	16dd	.
.	.	.	.	16ccJ	.
=27	=27	=27	=27	=27	=27
4GG	.	1r	.	8b	-ta,
.	.	.	.	8d	ar-
4FF	.	.	.	8e	-de e
.	.	.	.	8fnXi	sa-
4EE	.	.	.	8gL	-et-
.	.	.	.	16a	.
.	.	.	.	16gJ	.
4GG	.	.	.	16fL	.
.	.	.	.	16d	.
.	.	.	.	16g	.
.	.	.	.	16fJ	.
=28	=28	=28	=28	=28	=28
4C	.	4ee	Con	4e	-ta,
4GG	.	4dd	ch'a-	4r	.
4AA	.	4cc	-mor	2r	.
4D	.	8b	il	.	.
.	.	8a	mio	.	.
=29	=29	=29	=29	=29	=29
4GG	.	8b	cor	1r	.
.	.	8d	m'ar-	.	.
4FF	.	8e	-de e	.	.
.	.	8f	sa-	.	.
4EE	.	8gL	-et-	.	.
.	.	16a	.	.	.
.	.	16gJ	.	.	.
4GG	.	16fL	.	.	.
.	.	16d	.	.	.
.	.	16g	.	.	.
.	.	16fJ	.	.	.
=30	=30	=30	=30	=30	=30
4C	.	8e	-ta,	1r	.
.	.	8g	ar-	.	.
4BB-X	.	8a	-de e	.	.
.	.	8b-X	sa-	.	.
4AA	.	8ccL	-et-	.	.
.	.	16dd	.	.	.
.	.	16ccJ	.	.	.
4C	.	16b-XL	.	.	.
.	.	16g	.	.	.
.	.	16cc	.	.	.
.	.	16b-iJ	.	.	.
=31	=31	=31	=31	=31	=31
4FF	.	4a	-ta,	1r	.
4EE	.	4r	.	.	.
4GG	.	2r	.	.	.
4AA	.	.	.	.	.
=32	=32	=32	=32	=32	=32
4D	#	4ff#X	Con	4dd	Con
4AA	#	4ee	ch'a-	4cc#X	ch'a-
4BB	.	4dd	-mor	4b	-mor
4E	#	8cc#X	il	8a	il
.	.	8b	mio	8g#X	mio
=33	=33	=33	=33	=33	=33
4AA	.	4cc#X	cor	8a	co-
.	.	.	.	8e	-r'ar-
4GG	.	4r	.	8f	-de e
.	.	.	.	8gnXi	sa-
4FF#X	.	8r	.	8aL	-et-
.	.	8a	ar-	16b	.
.	.	.	.	16aJ	.
8GGL	.	8b	-de e	16gL	.
.	.	.	.	16e	.
8AAJ	.	8cc#i	sa-	16a	.
.	.	.	.	16gJ	.
=34	=34	=34	=34	=34	=34
8DL	.	8ddL	-et-	8f#X	-ta,
8BBJ	.	16ee	.	8d	ar-
.	.	16ddJ	.	.	.
8CL	.	16ccnXiL	.	8e	-de e
.	.	16a	.	.	.
8DJ	.	16dd	.	8f#X	sa-
.	.	16ccJ	.	.	.
8GGL	.	8b	-ta,	8gL	-et-
8EEJ	.	8g	ar-	16a	.
.	.	.	.	16gJ	.
8FFnXiL	.	8a	-de e	16fnXiL	.
.	.	.	.	16d	.
8GGJ	.	8b-X	sa-	16g	.
.	.	.	.	16fJ	.
=35	=35	=35	=35	=35	=35
8CL	.	8ccL	-et-	4e	-ta,
8AAJ	.	16dd	.	.	.
.	.	16ccJ	.	.	.
8BB-XL	.	16b-XL	.	4r	.
.	.	16g	.	.	.
8CJ	.	16cc	.	.	.
.	.	16b-iJ	.	.	.
4F	.	4a	-ta,	2r	.
4E	.	4r	.	.	.
=36	=36	=36	=36	=36	=36
4D	.	8r	.	8r	.
.	.	8ff	ar-	8a	ar-
4GG	.	8ee	-de e	8g	-de e
.	.	8dd	sa-	8f	sa-
4C	.	8cc	-et-	8eL	-et-
.	.	8ee	-ta, ar-	8gJ	.
4FF	.	8dd	-de e	8fL	.
.	.	8cc	sa-	8eJ	.
=37	=37	=37	=37	=37	=37
4GG	.	8bL	-et-	8dL	.
.	.	16cc	.	16e	.
.	.	16ddJ	.	16fJ	.
4EE	.	4.cc	.	16gL	.
.	.	.	.	16a	.
.	.	.	.	16b	.
.	.	.	.	16ccJ	.
4FF	.	.	.	2dd	.
.	.	16ddL	.	.	.
.	.	16ccJ	.	.	.
4GG	.	16bL	.	.	.
.	.	16g	.	.	.
.	.	16gg	.	.	.
.	.	16ffJ	.	.	.
=38	=38	=38	=38	=38	=38
4C	.	4ee	-ta.	4cc	-ta.
4BB	.	4r	.	2g	Né
4AA	.	2r	.	.	.
4D	.	.	.	8g	gri-
.	.	.	.	8f#X	-d'an-
=39	=39	=39	=39	=39	=39
4GG	.	4r	.	4g	-cor
4FF	.	2dd	Né	4a	ven-
4EE	.	.	.	8gL	-det-
.	.	.	.	16a	.
.	.	.	.	16bJ	.
4GG	.	8dd	gri-	8eL	.
.	.	8cc#X	-d'an-	16f#i	.
.	.	.	.	16gJ	.
=40	=40	=40	=40	=40	=40
4D	.	4b	-cor	4f#X	-na,
4C#X	.	4ccnXi	ven-	2a	Né
4BB	.	8ddL	-det-	.	.
.	.	16ee	.	.	.
.	.	16ff#XJ	.	.	.
4E	.	8bL	.	8a	gri-
.	.	16cc	.	8g#X	-d'an-
.	.	16ddJ	.	.	.
=41	=41	=41	=41	=41	=41
4AA	.	4cc#X	-ta,	2a	-cor,
4GG#X	.	2ee	Né	.	.
4FF#X	.	.	.	2r	.
4BB	.	8ee	gri-	.	.
.	.	8dd#X	-d'an-	.	.
=42	=42	=42	=42	=42	=42
4E	.	2ee	-cor,	4r	.
4C	.	.	.	2cc	Né
4FnXi	.	2r	.	.	.
4GnXi	.	.	.	8cc	gri-
.	.	.	.	8b	-d'an-
=43	=43	=43	=43	=43	=43
4C	.	4r	.	4cc	-cor
4BB	.	2g	Né	4dd	ven-
4AA	.	.	.	8ccL	-det-
.	.	.	.	16dd	.
.	.	.	.	16eeJ	.
4D	.	8g	gri-	8aL	.
.	.	8f#X	-d'an-	16b	.
.	.	.	.	16ccJ	.
=44	=44	=44	=44	=44	=44
4G	.	4g	-cor	4b	-ta
4F	.	4a	ven-	4r	.
4E	.	8gL	-den-	2r	.
.	.	16a	.	.	.
.	.	16bJ	.	.	.
4A	.	8eL	.	.	.
.	.	16f#i	.	.	.
.	.	16gJ	.	.	.
=45	=45	=45	=45	=45	=45
2D	.	4f#X	-ta	4r	.
.	.	4r	.	4f#X	Per-
4A	.	2r	.	8.e	-ché
.	.	.	.	16f#i	son
4B	.	.	.	8.d	dol-
.	.	.	.	16e	-ci e
=46	=46	=46	=46	=46	=46
4A	.	2r	.	8c#X	ca-
.	.	.	.	8e	-ri I
4G	.	.	.	8fnXi	vo-
.	.	.	.	8g	-stri
4F#X	.	8r	.	8aL	sguar-
.	.	8a	I	16b	.
.	.	.	.	16aJ	.
4E	.	8b	vo-	8gL	.
.	.	8cc	-stri	16a	.
.	.	.	.	16gJ	.
=47	=47	=47	=47	=47	=47
4D	#	4.dd	sguar-	8f#XL	.
.	.	.	.	16g	.
.	.	.	.	16aJ	.
4BB-X	.	.	.	8.d	.
.	.	8dd	-di a-	.	.
.	.	.	.	16e	-di a-
4GG	.	4dd	-va-	2e	-va-
4AA	.	4cc#X	.	.	.
=48	=48	=48	=48	=48	=48
4D	.	8dd	-ri,	2d	-ri,
.	.	8a	I	.	.
4C	.	8b	vo-	.	.
.	.	8ccnXi	-stri	.	.
4BBnXi	.	8ddL	sguar-	8r	.
.	.	16ee	.	8d	I
.	.	16ddJ	.	.	.
4AA	.	8ccL	.	8e	vo-
.	.	16dd	.	8fnXi	-stri
.	.	16ccJ	.	.	.
=49	=49	=49	=49	=49	=49
4GG	.	8bL	.	4.g	sguar-
.	.	16cc	.	.	.
.	.	16ddJ	.	.	.
4E	.	8.g	.	.	.
.	.	.	.	8g	-di a-
.	.	16a	-di a-	.	.
4C	.	2a	-va-	4g	-va-
4D	.	.	.	4f#X	.
=50	=50	=50	=50	=50	=50
4GG	.	4g	-ri,	2g	-ri,
4G	.	4b	Per-	.	.
4D	.	8.a	-ché	8r	.
.	.	.	.	8a	I
.	.	16b	son	.	.
4AA	7	8.g	dol-	8b	vo-
.	.	.	.	8cc	-stri
.	.	16a	-ci e	.	.
=51	=51	=51	=51	=51	=51
4.D	#	4f#X	ca-	4dd	sguar-
.	.	4f#i	-ri	4dd	-di,
8E	.	.	.	.	.
4FnX	.	2r	.	4r	.
4FF	.	.	.	4a	Per-
=52	=52	=52	=52	=52	=52
4C	.	8r	.	8.g	-ché
.	.	8g	I	.	.
.	.	.	.	16a	son
4GG	7	8a	vo-	8.f	dol-
.	.	8b	-stri	.	.
.	.	.	.	16g	-ci e
4C	.	4cc	sguar-	8e	ca-
.	.	.	.	8d	-ri I
4AA	.	4cc	-di,	8e	vo-
.	.	.	.	8f	-stri
=53	=53	=53	=53	=53	=53
4E	.	8r	.	8gL	sguar-
.	.	8g	I	16a	.
.	.	.	.	16gJ	.
4D	.	8a	vo-	8fL	.
.	.	8b	-stri	16g	.
.	.	.	.	16fJ	.
4C	.	4.cc	sguar-	8eL	.
.	.	.	.	16f	.
.	.	.	.	16gJ	.
4AA	.	.	.	8.c	.
.	.	8cc	-di a-	.	.
.	.	.	.	16d	-di a-
=54	=54	=54	=54	=54	=54
4FF	.	4cc	-va-	2d	-va-
4GG	.	4b	.	.	.
2C	.	4cc	-ri,	4e	-ri,
.	.	4ee	Per-	4cc	Per-
=55	=55	=55	=55	=55	=55
4G	.	8.dd	-ché	8.b	-ché
.	.	16ee	son	16cc	son
4A	.	8.cc	dol-	8.a	dol-
.	.	16dd	-ci e	16b	-ci e
2E	7	8b	ca-	4g#X	ca-
.	.	8b	-ri I	.	.
.	.	8cc	vo-	4g#i	-ri
.	.	8dd	-stri	.	.
=56	=56	=56	=56	=56	=56
4C	.	8eeL	sguar-	8r	.
.	.	16ff	.	8e	I
.	.	16eeJ	.	.	.
4BB	.	8ddL	.	8f	vo-
.	.	16ee	.	8gnXi	-stri
.	.	16ddJ	.	.	.
4AA	.	8ccL	.	4.a	sguar-
.	.	16dd	.	.	.
.	.	16eeJ	.	.	.
4F	.	8.a	.	.	.
.	.	.	.	8a	-di a-
.	.	16b	-di a-	.	.
=57	=57	=57	=57	=57	=57
4D	.	2b	-va-	4a	-va-
4E	.	.	.	4g#X	.
4AA	.	8a	-ri,	2a	-ri,
.	.	8a	I	.	.
4A	.	8b	vo-	.	.
.	.	8cc	-stri	.	.
=58	=58	=58	=58	=58	=58
4D	.	4dd	sguar-	8r	.
.	.	.	.	8d	I
4C	.	4dd	-di,	8e	vo-
.	.	.	.	8f	-stri
8BBL	.	8r	.	8gnXi	sguar-
8DJ	.	8f#X	I	8a	-di, I
8BBL	.	8g	vo-	8b	vo-
8AAJ	.	8a	-stri	8cc	-stri
=59	=59	=59	=59	=59	=59
4GG	.	8bL	sguar-	8ddL	sgua-
.	.	16cc	.	16ee	.
.	.	16bJ	.	16ddJ	.
4D	7	8aL	.	8ccL	.
.	.	16b	.	16dd	.
.	.	16aJ	.	16ccJ	.
4GG	.	8gL	.	8bL	.
.	.	16a	.	16cc	.
.	.	16bJ	.	16ddJ	.
4C	.	8.eL	.	8.gL	.
.	.	16fnXiJ	.	16aJ	.
=60	=60	=60	=60	=60	=60
4.GG	.	8.gL	.	2b	.
.	.	16aJ	.	.	.
.	.	8.bL	.	.	.
8AA	.	.	.	.	.
.	.	16ccJ	.	.	.
4BB	.	[2dd	.	2g	-di a-
4C	.	.	.	.	.
=61	=61	=61	=61	=61	=61
4D	.	4dd]	.	2.g	-va-
4E	.	8.g	.	.	.
.	.	16a	-di a-	.	.
4D	.	2a	-va-	.	.
4DD	.	.	.	4f#X	.
=62	=62	=62	=62	=62	=62
1GGl	.	1gl	-ri.	1gl	-ri.
==	==	==	==	==	==
*-	*-	*-	*-	*-	*-
!!!system-decoration: [*]
!!!RDF**kern: > = above
!!!RDF**kern: < = below
!!!RDF**kern: i = editorial accidental
!!!RDF**kern: l = terminal long
!!!ENC: Emiliano Ricciardi
!!!END: 2019
!!!EED: Ricciardi, Emiliano
!!!EEV: 2019/06/22
!!!YEC: Copyright 2018 Emiliano Ricciardi, All Rights Reserved
!!!ONB: Translated from MusicXML on 2019/06/22
!!@@BEGIN:	VERSEDATA
!!@SOLERTI:	373
!!@CATALOGNUM:	Trm0373
!!@LAST_MODIFIED: 2020/07/12
!!@ATTRIBUTION:	not secure
!!@TITLE:		Bella e vaga brunetta
!!@GENRE:		madrigale
!!@MANUSRC:	none
!!@PRINTSRC:	78
!!@@BEGIN:	VERSES
!!@ABOUTIT:	LA BRUNA. ANCELLA DI LEONORA THIENE SANVITALE CONTESSA DI SCANDIANO.
!!@ABOUTEN:	THE BRUNETTE. MAIDSERVANT OF LEONORA THIENE SANVITALE COUNTESS OF SCANDIANO.
!!@EDITOR:	Solerti, Angelo
!!@EDITION_TITLE: Le Rime di Torquato Tasso
!!@EDITION_LOC:	Bologna
!!@EDITION_PUB:	Romagnoli-Dall’Acqua
!!@EDITION_DATE:  1898-1902
!!@EDITION_VOL:	2
!!@EDITION_PAGE:  410
!!@TRANSLATOR:	Emiliano Ricciardi and Amyrose McCue Gill
!!@VERSE:
!!	Bella e vaga brunetta,
!!	I vostri occhi lucenti
!!	Son strali e fiamme ardenti
!!	Con che Amore il mio cor arde e saetta.
!!	Né grido ancor vendetta
!!	Perché son dolci e cari
!!	I vostri sguardi avari.
!!@TVERSE:
!!	Beautiful and lovely little dark-haired [lady],
!!	Your shining eyes
!!	Are arrows and burning flames
!!	With which Love burns and shoots my heart.
!!	Nor do I yet cry revenge
!!	For sweet and dear are
!!	Your ungenerous glances.
!!@@END:		VERSES
!!@OTHER_CRIT_ED:   None
!!@ATTRIBUTION_ABOUT:	Not secure
!!		<br>
!!		This poem is attributed to Tasso only in a late literary print that was not supervised by the author (see Literary Sources). Solerti, too, suggests that this poem may be of dubious attribution.
!!@DATING:	Mid-170s?
!!@DEDICATEE:	Maidservant of L. Sanvitale
!!@DEDICATEE_INFO:	Maidservant of Leonora Sanvitale, Countess of Scandiano ?
!!@COMMENTARY:
!!@@END:		VERSEDATA
!!@@BEGIN:	SETTING
!!@CATALOGNUM:	Trm0373a
!!@RIMETITLE:	Bella e vaga brunetta
!!@SOLERTI:	373
!!@COMPOSER:	Vignali, Francesco
!!@PRINCEPSTITLE:	Madrigali. Il primo libro a due, tre e quattro
!!@PRINCEPSLOC:	Venetia
!!@NORMLOC:	Venice
!!@NORMPUB:	Giacomo Vincenzi
!!@NORMPUBSHORT:	G. Vincenzi
!!@PRINCEPSPUB:	Vincenti
!!@PRINCEPSYEAR:	1640
!!@PRINCEPSRISM:	V 1484
!!@REPRINTS:	
!!@OVOICES:	2 + bc
!!@EXTANTVOICES:	2 + bc
!!@PARTBOOKS:	
!!@EXTPARTBOOKS:	
!!@OCLEFS:	C1,C1,F4
!!@OMENSURATION:	C
!!@OKEYSIG:	-
!!@FINAL:	G
!!@TIMPEDITOR:	Ricciardi, Emiliano
!!@YOUTUBE:	c6vgpu_A5AI
!!@YOUTUBESTART:	213
!!@YOUTUBEEND:	445
!!@NOTE:		
!!@@END:		SETTING
